X:1
T:Scott Skinner
T:Scott Skinner
T:Scott Skinner
C:Scott Skinner
L:1/8
M:2/4
K:A
V:1 treble 
V:1
 (e/4f/4g/4) | a(g/a/) e/c/A/F/ | E/A/G/A/ c/B/B/g/ |{g} a(g/a/) e/c/A/a/ | e/c/d/B/ c/A/A/g/ | %5
{g} ag/a/ e/c/A/F/ | E/A/G/A/ c/B/B/c/ | A/c/B/d/ c/e/d/f/ | e/c/d/B/ c/A/A/ || e/ | %10
 c/4c/4c/ A/e/ c/4c/4c/ A/a/ | E/a/g/a/ c/B/B/g/ |{g} a(g/a/) e/c/A/F/ | E/C/D/B,/ C/A,/A,/ || %14

